X: 31792
T: Patsy Campbell
R: reel
M: 4/4
K: Gmajor
BA|:GFDB, C2DC|B,DG,A, B,CDE|=FEDB, (C{D}C)B,C|DGGA BGA(G|
{A}G)FDB, C2DC|B,/C/D G,A, B,CDE|=FEDB, C2 A,/B,/C|1 DGGF G2 BA:|2 DGGF GBdc||
~B2 GA BGdB|AGFG ABc(B|~B2) GA BGdB|AGFE D3 c|
B(d{e}d)^c dedB|=c/d/c AB ~c2 A/B/c|dedc BGAF|GFGA B/c/d AG||G4||

